!!!COM: Bach, Johann Sebastian
!!!CDT: 1685/3//-1750/7/28/
!!!OTL@@DE: Herr Christ, der ein'ge Gott's Sohn
!!!AGN: 4-Part Chorale
!!!SCT: BH 101
!!!SCT: BWV 164
!!!YEC: Copyright 1994, David Huron
!!!YEC: Changes/Additions 2001 by Craig Stuart Sapp
!!!YEN: United States of America
!!!SMA: 371 Bach Chorales, edited by Ludwig Erk, C.F. Peters
!!!PDT: 1850, 1865
!!!ONB: Harmony and Root analysis done manually
**kern	**kern	**kern	**kern	**root	**harm
*Iorgan	*Iorgan	*Iorgan	*Iorgan	*Iorgan	*
!bass	!tenor	!alto	!soprno	!	!
*M4/4	*M4/4	*M4/4	*M4/4	*M4/4	*M4/4
*met(C)	*met(C)	*met(C)	*met(C)	*met(C)	*met(C)
*MM60	*MM60	*MM60	*MM60	*MM60	*MM60
*k[b-e-]	*k[b-e-]	*k[b-e-]	*k[b-e-]	*k[b-e-]	*k[b-e-]
*B-:	*B-:	*B-:	*B-:	*B-:	*B-:
*>[A,A,B]	*>[A,A,B]	*>[A,A,B]	*>[A,A,B]	*>[A,A,B]	*>[A,A,B]
*>A	*>A	*>A	*>A	*>A	*>A
4B-	4d	4f	4b-	4BB-	I
=1	=1	=1	=1	=1	=1
4E-	4e-	8g	8b-	4EE-	IV
.	.	8a	8cc	.	.
4BB-	4f	4b-	4dd	4BB-	I
4F	8f	4a	4cc	4FF	V
.	8e-	.	.	.	.
4G	4d	4g	4b-	4GG	vi
=2	=2	=2	=2	=2	=2
4C	4e-	4g	2a	4AA	viio7b
4D	8d	4f#	.	4DD	V/vi
.	8c	.	.	.	.
4E-;	4B-;	4g;	4g;	4EE-;	IV;
4G	4B-	4g	4dd	4GG	vi
=3	=3	=3	=3	=3	=3
4C	4B-	4g	4ee-	4CC	ii7
8F	4A	4fn	4cc	4FF	V
8E-	.	.	.	.	.
8D	4B-	4f	4dd	4BB-	Ib
8E-	.	.	.	.	.
4F	8B-	4f	4cc	4FF	V
.	8A	.	.	.	.
=4	=4	=4	=4	=4	=4
2.BB-;	2.d;	2.f;	2.b-;	2.BB-;	I;
*>B	*>B	*>B	*>B	*>B	*>B
=:|!	=:|!	=:|!	=:|!	=:|!	=:|!
4BB-	8d	4f	8b-	4BB-	I
.	8e-	.	8cc	.	.
!!linebreak: 2
=5	=5	=5	=5	=5	=5
8B-	4f	4b-	4dd	4BB-	I
8A	.	.	.	.	.
8G	4g	8b-	4dd	4GG	vi
8F	.	8a	.	.	.
8E-	8g	4g	4ee-	4EE-	IV
8D	8f	.	.	.	.
8C	8e-	4g	4ee-	4CC	ii
8BB-	8d	.	.	.	.
=6	=6	=6	=6	=6	=6
4AA	4c	2f	4ff	4FF	Vb
4BB-	4B-	.	8ee-	4BB-	I
.	.	.	8dd	.	.
4FF;	4A;	4f;	4cc;	4FF;	V;
4AA	4c	4f	4ff	4FF	Vb
=7	=7	=7	=7	=7	=7
8BB-	4B-	4f	4dd	4BB-	I
8C	.	.	.	.	.
8D	4B-	4f	4dd	4BB-	Ib
8E-	.	.	.	.	.
8F	4A	8f	4cc	8FF	V
8F#	.	8e-	.	8FF#	viioD7/vi
8G	8A	4d	4b-	8GG	vi
8BB-	8G	.	.	8GG	vib
=8	=8	=8	=8	=8	=8
8C	4G	8e-	2a	4AA	viio7b
8AA	.	8c	.	.	.
4D	4F#	4d	.	4DD	V/vi
4GG;	4B-;	4d;	4g;	4GG;	vi;
4G	4Bn	4g	4dd	4GG	V/ii
=9	=9	=9	=9	=9	=9
8c	8c	4g	4ee-	4CC	ii
8B-	8d	.	.	.	.
8A	8e-	4f	4cc	4FF	V7b
8F	8A	.	.	.	.
8B-	4B-y	8f	4dd	4BB-	I
8E-	.	8g	.	.	.
8F	8f	4a	4cc	4FF	V
8FF	8e-	.	.	.	.
=10	=10	=10	=10	=10	=10
2.BB-;	2.d;	2.f;	2.b-;	2.BB-;	I;
==	==	==	==	==	==
*-	*-	*-	*-	*-	*-
!!chor2scor: -l 2 -s 0.6 -o %b.pmx
